X: 1
T: New Brunswick, The
M: 12/8
L: 1/8
R: slide
K: Gmaj
|: g | b2 g dcB cBA f2 g | agf e2 f g2 B d2 g | 
b2 g d2 B cBA f2 g | fed cBA G3 G2 :|
|: c | B2 c dcB cBA f2 g | agf e2 f g2 B d2 c | 
B2 c d2 B cBA f2 g | fed cBA G3 G2 :|
